X:3
T:Bouncin' With Bud
C:Bud Powell
L:1/8
M:C
I:linebreak $
K:Bb
"Bb" dcBA"Gm" cBAG |"Cm" FDE_G"F7" z2 F/_G/F/E/ |"Dm" DCF=B,"G7" z4 |"Cm" G2 EC"D7" A2 ^FD |$
"Gm" BG z2 z2 z A |"Dbo" BG z2 z2 z A |"Cm" BGAB"F7" GEDC ||1"Bb" F4"B7" z2 z e :|2$
"Bb" F B,3"Ab7" FB,^FG ||"Gm" z G2 A2 B2 d |"Eø" z B2 A2 G3 |"Aø" d6 (3BGE |
"D7" (3fef z2 z2 z e |$"G7" _d6 (3=e_dG |"Go" (3e_de z2 z2 z _d |"Cm" =d4 BGEG |
"F7" _dc z2 z2 z"_D.C. al 3rd end." e ||3"Bb" FB, z2 z4 |]

